X:2
T:We Wish You a Merry Christmas 
L:1/8
M:3/4
K:G
R: Christmas
r: 16
D2 | "G" G2 GA GF | "G" E2 E2 E2 | "Am" A2 AB AG | F2 D2D2 | 
"B" B2 Bc BA | "Em" D2 E2 DD | "Am" E2 A2 F2 | G6 | 
D2 | "G"G2 G2 G2 | "D"F4 F2 | "Em" G2 F2 E2 | "Bm"D4 B2 | 
"Am" c2 BB AA | "D"d2 D2 DD | "Am" E2 A2 "D"F2 | "G" G6 |]

